images/form/dish-2.svg

<svg width="83" height="14" viewBox="0 0 83 14" fill="none" xmlns="http://www.w3.org/2000/svg">
<path d="M10.0922 13.1284C9.39528 12.3603 9.19616 11.336 9.03022 10.3438C8.69835 8.03936 8.76472 5.57485 8.69835 3.17436C6.67393 5.95893 5.08095 8.77551 3.15609 11.9442C2.95697 12.1682 2.85741 12.3282 2.52554 12.4563C2.22685 12.4563 1.96135 12.4243 1.72904 12.1042C0.136059 9.25561 -0.162626 5.76689 0.0696844 2.31018C0.0696844 2.08613 0.136059 1.70205 0.401556 1.60603C0.832989 1.47801 1.16486 1.83008 1.16486 2.08613C0.965738 5.28679 1.3308 8.32742 2.42597 11.08C3.58753 9.15959 4.51677 7.55926 5.51238 5.99094C6.54118 4.3586 7.63636 2.79028 9.03022 0.997909C9.29572 0.805869 9.66078 0.933896 9.79353 1.18995C9.89309 4.26258 9.8599 7.2712 10.1254 10.2158C10.1918 11.176 10.4241 12.1042 10.4905 13.0004C10.4905 13.1284 10.1918 13.2564 10.0922 13.1284Z" fill="#262626"/>
<path d="M17.9869 12.2322C16.7258 12.8404 15.3319 13.1924 13.8385 13.3525C13.407 13.4165 12.7433 13.4485 12.345 13.0964C11.9136 12.8083 11.98 12.1682 12.0796 11.8481C12.1459 11.6881 12.511 11.5601 12.6105 11.7841C12.6105 11.8161 12.6437 11.8802 12.6437 11.9442C12.7101 12.1042 12.8097 12.2962 13.0088 12.3603C14.5022 12.2962 15.8961 12.0082 17.1572 11.4001C18.4847 10.7919 19.3144 10.1518 20.2436 8.99956C20.5091 8.67949 20.5755 8.29541 20.4095 8.00735C20.2104 7.55926 19.7126 7.11117 19.248 6.88712C18.6838 6.63107 17.9869 6.53505 17.2236 6.50304C16.5598 6.50304 15.8297 6.53505 15.0996 6.56706C14.9005 6.56706 14.7345 6.37502 14.7013 6.21498C14.6682 5.99094 14.7345 5.86291 14.8673 5.73489L15.1991 5.51084C15.6306 5.38281 16.0952 5.38281 16.4934 5.41482C16.9249 5.44683 17.3231 5.51084 17.7214 5.47883C18.1196 5.47883 18.5511 5.3188 18.8497 4.93472L19.4803 4.29459C19.6462 4.07054 19.7458 3.8465 19.6462 3.59044C19.0157 2.82229 18.2524 2.4062 17.3895 2.08613C16.3939 1.73406 15.2655 1.60603 14.104 1.51001C13.8717 1.38199 13.8053 0.965902 14.0044 0.773863C14.3695 0.485804 14.8009 0.453797 15.1991 0.485804C16.0952 0.549817 17.2899 0.805869 18.0532 1.12594C19.1484 1.57403 20.0777 2.21416 20.7082 3.23837C21.0069 3.8785 20.7082 4.55064 20.2768 4.96673C19.9449 5.3188 19.5467 5.57485 19.1484 5.83091C19.8454 6.11896 20.7746 6.53505 21.2392 7.17518C21.8034 7.87933 21.737 8.74351 21.3388 9.44765C20.7414 10.5999 19.1484 11.6561 17.9869 12.2322Z" fill="#262626"/>
<path d="M48.5655 13.1604C48.3332 13.1284 48.2004 13.0004 48.1009 12.8404L48.0013 12.6803C46.7734 10.1198 46.2424 7.2392 46.2092 4.19857C45.7778 5.22278 45.3463 6.21498 44.8485 7.20719C44.2843 8.32742 43.6538 9.41564 42.7577 10.4399C42.3595 10.92 41.5962 10.984 40.9988 10.8559C40.501 10.6319 40.1691 10.0878 39.9368 9.63969C38.6757 7.30321 38.0783 4.67867 37.4478 2.11814C37.4478 2.08613 37.4146 2.05413 37.3814 2.08613C35.3238 4.99873 34.1291 8.26341 33.2994 11.7201C33.1666 12.0402 33.4653 12.3282 33.4985 12.6483C33.5649 12.8404 33.4321 13.0324 33.1666 13.1284C32.8016 13.1604 32.5029 12.8724 32.337 12.6163C32.1046 12.0722 32.1378 11.4641 32.3038 10.92C33.3989 7.46324 34.5273 4.03854 36.8504 1.02992C37.1491 0.837876 37.4478 0.837876 37.7133 0.901889C38.0451 0.901889 38.3438 1.22196 38.377 1.446C39.1071 4.19857 39.7045 7.01515 41.1316 9.51166C41.3307 9.76772 41.5962 9.92775 41.8949 9.83173C42.6582 9.12758 43.156 8.26341 43.6538 7.39923C44.6494 5.63887 45.3463 3.78248 46.1096 1.86209L46.2756 1.63804C46.3751 1.54202 46.4415 1.47801 46.6074 1.47801C46.9393 1.38199 47.1716 1.60603 47.3044 1.83008C47.238 3.81449 47.2712 5.67087 47.5035 7.49525C47.7358 9.31962 48.1672 11.112 48.8642 12.8404C48.8974 13.0644 48.665 13.1604 48.5655 13.1604Z" fill="#262626"/>
<path d="M58.6557 2.34219C58.8548 5.57485 58.7552 9.03157 58.3902 12.2322C58.3238 12.3603 58.2574 12.5523 58.1911 12.7763C58.0915 12.9684 58.0251 13.1604 57.8592 13.3525C57.7928 13.4805 57.3614 13.5445 57.2618 13.3204C57.3282 12.5843 57.6932 8.7115 57.5937 7.04716C55.171 8.39143 52.9143 10.7599 51.2217 12.9684C51.0558 13.1284 50.6576 13.1284 50.5912 12.8083C50.5912 12.2322 50.8235 11.7841 51.1554 11.336C51.4872 10.92 51.8855 10.5359 52.1842 10.0878C53.0139 9.12759 53.9763 8.32742 54.9719 7.55926C54.1754 7.62327 53.3457 7.55926 52.5492 7.20719C51.6532 6.82311 51.0558 6.08696 50.9231 5.12676C50.8235 4.55064 50.9231 3.94252 51.2217 3.49442C51.8191 2.59824 52.6156 1.83008 53.5117 1.31797C54.5737 0.70985 55.7352 0.389784 57.0295 0.485804C57.7264 0.70985 58.5229 0.933896 58.8548 1.63804C58.9212 1.86209 58.9212 2.15015 58.6557 2.34219ZM57.5605 3.71847C57.5605 3.01432 57.5273 2.34219 57.4278 1.70205C56.8304 1.47801 56.3326 1.41399 55.6688 1.60603C54.9719 1.79807 54.1422 2.11814 53.4785 2.59824C52.682 3.17436 52.0846 3.91051 52.0514 4.87071C52.1178 5.28679 52.2837 5.70288 52.6488 6.02294C53.1134 6.311 53.7108 6.47104 54.2418 6.50304C55.4365 6.59906 56.6644 6.24699 57.5937 5.7989C57.5605 5.12676 57.5605 4.42261 57.5605 3.71847Z" fill="#262626"/>
<path d="M66.9297 13.0324C65.6685 13.1924 64.341 13.0964 63.0799 12.3603C61.4206 11.4001 60.6905 9.73571 60.79 7.87933C60.8896 6.43903 61.3542 5.09475 62.1839 3.8785C63.0136 2.66225 64.1751 1.67005 65.569 1.02992C66.2991 0.677843 67.2947 0.51781 68.0912 0.837876C68.755 1.09393 69.4519 1.76607 69.5846 2.4062C69.651 2.59824 69.3191 3.01432 69.0536 2.82229C68.6886 2.50222 68.224 2.08613 67.7593 1.89409C67.2947 1.70205 66.8633 1.67005 66.3655 1.86209C65.0712 2.37419 63.8764 3.3664 63.0799 4.55064C62.3498 5.63887 61.9184 6.91913 61.8852 8.2314C61.8852 9.41564 62.3498 10.5359 63.3786 11.272C64.341 11.9442 65.6022 12.1042 66.7637 12.0082C68.7218 11.8481 70.4475 11.048 72.1732 10.3118C72.3724 10.3118 72.671 10.6319 72.5051 10.8559C70.8457 11.7521 68.9541 12.7443 66.9297 13.0324Z" fill="#262626"/>
<path d="M80.0015 13.0324C78.1762 13.5125 76.0522 13.4805 74.6252 12.2962C73.9614 11.7521 73.4636 10.952 73.4305 10.0878C73.3973 9.31962 73.7291 8.61548 74.1938 7.97535C75.2226 6.56706 77.0147 5.60686 78.7404 5.41482C79.4705 5.35081 80.1343 5.44683 80.6653 5.95893C80.8312 6.11896 80.6653 6.43903 80.4993 6.50304H80.2006C80.1011 6.50304 79.9683 6.47104 79.8688 6.47104C79.6365 6.43903 79.4373 6.40702 79.3046 6.50304C77.7116 6.56706 76.1518 7.30321 75.1894 8.55147C74.7579 9.09558 74.5256 9.51166 74.592 10.1838C74.6584 11.08 75.3553 11.7521 76.3177 12.0722C77.6784 12.5523 79.371 12.2642 80.6653 11.8161C81.3622 11.5601 81.9927 11.304 82.5901 10.8879C82.7229 10.7919 82.8556 10.8879 82.922 11.048C82.9552 11.176 82.9552 11.304 82.9552 11.4001C82.4905 12.2642 80.6321 12.8724 80.0015 13.0324ZM81.86 10.8559C81.6941 11.048 81.3954 11.016 81.2626 10.92C80.9308 10.6959 80.9307 10.2798 80.9307 9.95976C80.9639 9.41564 81.0635 8.87153 81.1963 8.29541L81.6277 6.53505C81.8932 5.38281 82.0591 4.23058 81.6941 3.27038C81.3954 2.43821 80.6653 1.60603 79.7692 1.51001C79.0059 1.41399 78.2426 1.67005 77.612 2.11814C77.2802 2.34219 76.55 2.95031 76.3509 3.30238C76.3177 3.43041 76.3841 3.65446 76.5169 3.78248C76.6496 3.91051 76.55 4.29459 76.2514 4.23058C76.0191 4.16656 75.7535 4.10255 75.5544 3.94252C75.2889 3.71847 75.1894 3.30238 75.3885 2.98232C75.9527 2.05413 76.7492 1.28597 77.778 0.837876C78.4417 0.51781 79.2382 0.389784 80.0679 0.51781C81.0635 0.677843 81.9264 1.38199 82.4242 2.27817C83.1875 3.65446 83.0879 5.38281 82.7229 6.91913C82.391 8.2314 82.0591 9.44765 81.86 10.8559Z" fill="#262626"/>
</svg>

<svg width="83" height="14" fill="none" xmlns="http://www.w3.org/2000/svg"><path d="M10.092 13.128c-.697-.768-.896-1.792-1.062-2.784-.332-2.305-.265-4.77-.332-7.17-2.024 2.785-3.617 5.602-5.542 8.77-.199.224-.299.384-.63.512-.3 0-.565-.032-.797-.352C.136 9.256-.163 5.767.069 2.31c0-.224.067-.608.333-.704.431-.128.763.224.763.48-.2 3.2.166 6.241 1.261 8.994 1.162-1.92 2.09-3.52 3.086-5.09A60.222 60.222 0 0 1 9.03.999c.266-.192.63-.064.764.192.1 3.073.066 6.081.331 9.026.067.96.3 1.888.366 2.784 0 .128-.3.256-.399.128zM17.987 12.232c-1.261.608-2.655.96-4.148 1.12-.432.064-1.096.096-1.494-.256-.431-.288-.365-.928-.265-1.248.066-.16.431-.288.53-.064 0 .032.034.096.034.16.066.16.166.352.365.416 1.493-.064 2.887-.352 4.148-.96 1.328-.608 2.157-1.248 3.087-2.4.265-.32.332-.705.166-.993-.2-.448-.697-.896-1.162-1.12-.564-.256-1.261-.352-2.024-.384-.664 0-1.394.032-2.124.064-.2 0-.365-.192-.399-.352a.491.491 0 0 1 .166-.48l.332-.224c.432-.128.896-.128 1.294-.096.432.032.83.096 1.228.064.399 0 .83-.16 1.129-.544l.63-.64c.166-.224.266-.449.166-.705-.63-.768-1.394-1.184-2.256-1.504-.996-.352-2.125-.48-3.286-.576-.232-.128-.299-.544-.1-.736.366-.288.797-.32 1.195-.288.896.064 2.09.32 2.854.64 1.095.448 2.025 1.088 2.655 2.112.299.64 0 1.313-.431 1.729-.332.352-.73.608-1.129.864.697.288 1.627.704 2.091 1.344.564.704.498 1.569.1 2.273-.598 1.152-2.19 2.208-3.352 2.784zM48.566 13.16c-.233-.032-.366-.16-.465-.32l-.1-.16c-1.228-2.56-1.759-5.44-1.792-8.481a49.337 49.337 0 0 1-1.36 3.008c-.565 1.12-1.195 2.209-2.091 3.233-.399.48-1.162.544-1.76.416-.497-.224-.829-.768-1.061-1.216-1.261-2.337-1.859-4.961-2.49-7.522 0-.032-.032-.064-.066-.032C35.324 5 34.13 8.263 33.3 11.72c-.132.32.166.608.2.928.066.192-.067.384-.332.48-.365.032-.664-.256-.83-.512-.232-.544-.2-1.152-.033-1.696 1.095-3.457 2.223-6.881 4.546-9.89.3-.192.598-.192.863-.128.332 0 .63.32.664.544.73 2.753 1.328 5.57 2.755 8.066.199.256.464.416.763.32.763-.704 1.261-1.569 1.759-2.433.995-1.76 1.692-3.617 2.456-5.537l.166-.224c.1-.096.165-.16.331-.16.332-.096.565.128.697.352-.066 1.984-.033 3.84.2 5.665.232 1.825.663 3.617 1.36 5.345.033.224-.199.32-.298.32zM58.656 2.342c.199 3.233.1 6.69-.266 9.89-.066.128-.133.32-.199.544-.1.192-.166.384-.332.576-.066.128-.498.192-.597-.032.066-.736.431-4.609.332-6.273-2.423 1.344-4.68 3.713-6.372 5.921-.166.16-.564.16-.63-.16 0-.576.232-1.024.563-1.472.332-.416.73-.8 1.03-1.248.829-.96 1.791-1.76 2.787-2.529-.797.064-1.626 0-2.423-.352-.896-.384-1.493-1.12-1.626-2.08-.1-.576 0-1.184.299-1.633.597-.896 1.394-1.664 2.29-2.176C54.574.71 55.735.39 57.029.486c.697.224 1.494.448 1.826 1.152.066.224.066.512-.2.704zM57.56 3.718c0-.704-.033-1.376-.132-2.016-.598-.224-1.095-.288-1.76-.096-.696.192-1.526.512-2.19.992-.796.576-1.393 1.313-1.427 2.273.067.416.233.832.598 1.152.464.288 1.062.448 1.593.48 1.195.096 2.422-.256 3.352-.704-.034-.672-.034-1.376-.034-2.08zM66.93 13.032c-1.262.16-2.589.064-3.85-.672-1.66-.96-2.39-2.624-2.29-4.48.1-1.441.564-2.785 1.394-4.002a8.264 8.264 0 0 1 3.385-2.848c.73-.352 1.726-.512 2.522-.192.664.256 1.36.928 1.494 1.568.066.192-.266.608-.531.416-.365-.32-.83-.736-1.295-.928-.464-.192-.896-.224-1.394-.032-1.294.512-2.489 1.504-3.285 2.689a6.956 6.956 0 0 0-1.195 3.68c0 1.185.465 2.305 1.494 3.041.962.672 2.223.832 3.385.736 1.958-.16 3.684-.96 5.41-1.696.198 0 .497.32.331.544-1.66.896-3.55 1.888-5.575 2.176zM80.001 13.032c-1.825.48-3.949.448-5.376-.736-.664-.544-1.161-1.344-1.195-2.208-.033-.768.3-1.473.764-2.113 1.029-1.408 2.82-2.368 4.546-2.56.73-.064 1.394.032 1.925.544.166.16 0 .48-.166.544h-.298c-.1 0-.233-.032-.332-.032-.233-.032-.432-.064-.564.032-1.593.064-3.153.8-4.116 2.048-.431.545-.663.96-.597 1.633.066.896.763 1.568 1.726 1.888 1.36.48 3.053.192 4.347-.256.697-.256 1.328-.512 1.925-.928.133-.096.266 0 .332.16.033.128.033.256.033.352-.465.864-2.323 1.472-2.954 1.632zm1.859-2.176c-.166.192-.465.16-.597.064-.332-.224-.332-.64-.332-.96a10.16 10.16 0 0 1 .265-1.665l.432-1.76c.265-1.152.431-2.304.066-3.265-.299-.832-1.029-1.664-1.925-1.76-.763-.096-1.526.16-2.157.608-.332.224-1.062.832-1.261 1.184-.033.128.033.352.166.48.133.129.033.513-.266.449-.232-.064-.498-.128-.697-.288-.265-.225-.365-.64-.166-.96.565-.929 1.361-1.697 2.39-2.145.664-.32 1.46-.448 2.29-.32.996.16 1.858.864 2.356 1.76.763 1.376.664 3.105.299 4.641-.332 1.312-.664 2.529-.863 3.937z" fill="#262626"/></svg>
